assets/logo.svg

<?xml version="1.0" encoding="UTF-8" standalone="no"?>
<svg width="602px" height="145px" viewBox="0 0 602 145" version="1.1" xmlns="http://www.w3.org/2000/svg" xmlns:xlink="http://www.w3.org/1999/xlink">
    <!-- Generator: Sketch 3.8.3 (29802) - http://www.bohemiancoding.com/sketch -->
    <title>Group</title>
    <desc>Created with Sketch.</desc>
    <defs></defs>
    <g id="Page-1" stroke="none" stroke-width="1" fill="none" fill-rule="evenodd">
        <g id="Group" fill="#000000">
            <path d="M485.7876,112.9686 C483.0576,112.9686 481.0256,115.1276 481.0256,117.7306 C481.0256,120.3976 483.0576,122.4926 485.7876,122.4926 C488.4546,122.4926 490.5496,120.3976 490.5496,117.7306 C490.5496,115.1276 488.4546,112.9686 485.7876,112.9686" id="Fill-1"></path>
            <path d="M528.0284,75.3749 L499.0114,75.3749 C498.1664,75.3749 497.4824,76.0589 497.4824,76.9039 L497.4824,121.5399 C497.4824,122.3849 498.1664,123.0689 499.0114,123.0689 L506.8214,123.0689 C507.6664,123.0689 508.3504,122.3849 508.3504,121.5399 L508.3504,105.6709 L525.6164,105.6709 C526.4624,105.6709 527.1454,104.9869 527.1454,104.1419 L527.1454,97.1579 C527.1454,96.3129 526.4624,95.6289 525.6164,95.6289 L508.3504,95.6289 L508.3504,85.6709 L528.0284,85.6709 C528.8734,85.6709 529.5574,84.9869 529.5574,84.1419 L529.5574,76.9039 C529.5574,76.0589 528.8734,75.3749 528.0284,75.3749" id="Fill-3"></path>
            <path d="M583.0951,76.6695 C583.0711,75.8425 582.3931,75.1835 581.5661,75.1835 L578.0731,75.1835 C577.5181,75.1835 577.0071,75.4835 576.7371,75.9695 L559.9621,106.1075 L542.7671,75.9555 C542.4941,75.4775 541.9881,75.1835 541.4381,75.1835 L537.9451,75.1835 C537.1181,75.1835 536.4401,75.8425 536.4161,76.6695 L535.1471,121.4965 C535.1371,121.9105 535.2921,122.3085 535.5801,122.6065 C535.8681,122.9015 536.2621,123.0695 536.6761,123.0695 L544.3591,123.0695 C545.2011,123.0695 545.8831,122.3895 545.8881,121.5475 L545.9831,102.2935 L557.0471,122.6525 C557.3141,123.1455 557.8311,123.4515 558.3911,123.4515 L561.1201,123.4515 C561.6861,123.4515 562.2071,123.1375 562.4721,122.6375 L573.4141,101.9625 L573.5611,121.5515 C573.5671,122.3915 574.2491,123.0695 575.0901,123.0695 L582.8351,123.0695 L582.8651,123.0695 C583.7101,123.0695 584.3941,122.3855 584.3941,121.5395 C584.3941,121.4205 584.3811,121.3045 584.3551,121.1925 L583.0951,76.6695 Z" id="Fill-5"></path>
            <path d="M77.5882,117.9681 C75.5602,109.6351 75.2992,99.1161 77.7782,85.6941 C79.6362,80.2311 80.9782,76.3691 81.8372,73.5651 C82.6182,73.3831 83.2182,73.2271 83.5482,73.1111 C89.2822,71.0471 91.4012,56.2581 85.4922,57.4611 C85.2462,57.5111 46.5362,70.1301 35.6992,71.0521 C33.2122,71.4301 33.8932,76.0331 33.2912,80.6441 C33.1882,81.6891 50.5972,79.1721 65.0172,76.7271 C64.3962,79.7461 63.9902,82.8581 63.6312,85.5811 C54.5482,126.2241 23.7962,136.2031 18.1802,121.0661 C7.5932,92.5441 29.3052,31.4331 55.8802,11.8641 C64.3442,15.0951 65.3912,29.2841 59.1652,45.9381 C65.2982,75.0481 102.8312,-22.4459 58.0652,4.8911 C28.6212,-14.4009 8.7022,39.6361 2.5872,68.2361 C-11.0528,132.4771 32.1532,167.5901 64.0672,115.8811 C67.0982,149.9751 90.5902,151.3271 94.8132,130.1941 C85.6992,133.8211 79.8682,127.9541 77.5882,117.9681" id="Fill-7"></path>
            <path d="M453.3238,117.5736 L453.3148,117.4486 C449.7738,115.5686 453.3658,97.6686 459.4138,77.1946 C473.3258,67.7286 461.8268,121.8586 453.3238,117.5736 L453.3238,117.5736 Z M408.4968,122.8966 C405.8198,119.0626 409.2678,100.9216 415.0178,79.8406 C417.1518,81.4456 420.3778,82.4686 424.6268,82.0276 C425.3708,97.2156 415.6448,129.2966 408.4968,122.8966 L408.4968,122.8966 Z M284.0368,101.5566 C280.3508,109.6386 271.5918,107.0096 273.2268,98.4486 C274.2358,93.3366 278.1518,91.7876 283.8548,88.8486 C285.0368,92.9186 285.9868,97.2556 284.0368,101.5566 L284.0368,101.5566 Z M229.7538,70.9226 L223.8878,92.1386 C204.8938,133.4696 215.0688,37.4936 233.9148,55.6266 L229.7538,70.9226 Z M173.6718,75.6896 C168.7698,72.3996 168.4768,58.1876 172.2348,57.9096 C174.4908,57.7436 174.3458,69.4676 173.6718,75.6896 L173.6718,75.6896 Z M158.6898,109.9226 C154.8638,104.1586 155.4968,95.6736 158.2598,87.0306 C160.7808,85.3326 162.5718,82.3026 163.4498,78.8376 C165.6068,82.4576 168.6918,85.0006 172.4158,85.9866 C172.4258,86.1116 172.5518,86.1016 172.5518,86.1016 C171.9618,102.0156 162.4878,115.3106 158.6898,109.9226 L158.6898,109.9226 Z M117.9908,70.4766 C112.9818,67.4456 111.0988,62.4206 114.8578,62.1436 C117.1118,61.9766 118.6668,64.2546 117.9908,70.4766 L117.9908,70.4766 Z M600.5778,51.8906 C594.4648,41.7456 496.5678,53.6396 463.5068,63.7656 C468.7608,47.6086 474.8158,31.6466 479.6638,22.1676 C481.0098,19.9266 483.2388,15.9836 483.9768,14.0396 C485.3368,10.2866 464.8938,13.1806 464.8798,14.6936 C460.6968,21.1736 455.8998,32.9896 451.7338,46.5226 C449.9848,48.4156 444.3858,57.8976 436.2688,65.6766 C433.1988,61.6206 427.8268,60.5046 419.6628,64.2556 C425.6498,44.6676 432.8888,24.9876 438.6968,13.2236 C439.9178,10.9926 443.1718,5.5876 443.9988,3.1346 C445.4478,-1.1304 423.6438,2.1156 423.6298,3.6296 C417.5628,12.9266 410.4658,31.8976 404.8648,52.3916 C399.9748,59.0476 387.5628,76.0636 380.2628,83.4126 C380.8928,73.1626 386.8758,60.3766 390.9118,48.4916 C396.4508,39.8956 396.6048,36.8616 395.5008,35.5566 C388.4948,32.7986 378.9218,34.5126 378.1148,37.2176 C373.7208,49.3806 369.9788,60.1126 368.4638,70.3016 C362.5118,78.4236 355.9538,86.8426 352.7988,88.4616 C350.6758,80.1786 359.1588,56.8806 362.3078,48.3336 C366.8008,40.9486 367.3318,37.8856 366.0148,37.1026 C360.2148,33.6256 348.9538,36.3466 348.5118,38.8976 C343.8118,49.1766 340.9178,58.5636 339.4298,66.7646 C328.3538,82.7336 315.4728,103.1346 314.7128,95.6416 C315.5278,84.4966 320.5678,65.7336 328.6288,45.2386 C332.0538,40.4506 335.3458,35.5466 338.3768,30.5376 C362.4118,28.5106 389.7548,25.2346 390.8608,23.1376 C391.7228,21.1846 398.8488,10.2046 396.0938,10.4076 C395.7168,10.4356 368.8878,15.5636 344.1238,19.6576 C346.4218,14.9546 348.0938,10.2956 349.3998,5.7906 C352.0788,-3.9804 329.8148,1.5676 326.9758,4.0456 C326.8488,4.0546 326.8488,4.0546 326.8588,4.1796 C326.7428,4.3136 326.6178,4.3236 326.6268,4.4486 C324.2258,11.1746 321.9148,17.3916 319.9578,23.3296 C315.0998,24.0676 310.9748,24.4976 308.2188,24.7006 C303.5848,25.0426 304.3618,28.7626 302.8768,32.5256 C302.7778,32.9106 308.4348,32.7466 316.9638,32.2426 C313.7728,41.9246 311.2408,50.2986 309.1468,57.7596 C304.1148,64.6806 298.6418,70.7526 293.3108,75.3026 C291.5738,67.1176 290.7778,59.7446 297.5048,43.3766 C299.8548,37.6616 294.1398,35.3116 279.8598,41.5296 C279.5038,41.8086 278.9228,42.4806 278.3608,43.4036 C276.0508,47.0376 271.4538,55.2666 266.8408,62.7266 C266.6248,62.8246 266.4128,62.9656 266.2158,63.1946 C265.7658,63.6586 263.4578,67.4466 260.2948,72.5216 C260.0028,72.9086 259.7098,73.2966 259.4308,73.6456 C259.4308,73.6456 259.4458,73.7236 259.4708,73.8426 C255.3358,80.4546 249.9908,88.8186 245.3828,94.9616 C244.1168,96.5656 241.6278,100.4026 240.8598,93.4056 C238.8558,74.7856 262.8748,19.6056 269.9208,9.2626 C273.8988,3.4256 249.4368,6.4896 248.8608,8.9266 C242.9958,23.3406 238.7518,37.5086 235.2898,50.3606 C219.4008,27.8226 204.3248,49.7936 199.6048,74.0496 C196.2338,76.9306 192.7568,78.9606 189.5398,79.0536 C194.0918,50.2516 171.2628,32.7896 162.6468,49.1696 C160.2328,54.0086 159.2608,59.6216 159.5328,65.0186 C157.5888,64.2806 155.2098,64.4566 152.1698,65.9396 C151.5518,66.1106 150.9458,66.4086 150.4988,67.1966 C147.9498,71.9196 145.9398,77.1066 144.8238,82.4786 C141.5578,82.5936 137.7348,81.9946 133.6058,80.6606 C134.4858,73.7946 134.1388,67.3956 132.3908,62.4866 C127.1748,48.1346 111.3878,40.7336 105.2688,53.4026 C98.6958,66.7356 113.4038,80.0096 116.5118,81.1676 C116.6378,81.1576 116.6378,81.1576 116.7718,81.2736 C116.3088,97.1796 107.0398,121.7946 101.3128,114.1556 C95.9228,105.9886 99.4618,92.5016 105.1638,80.9966 C105.5088,75.4286 95.7868,66.5736 93.1218,71.4296 C83.3448,89.1556 84.0338,115.5566 93.9278,121.6286 C95.1298,122.5476 96.1498,122.7236 97.6338,122.3626 C113.6688,127.9816 126.9768,108.6106 131.9608,89.0966 C136.0808,90.3036 139.9038,90.9036 143.6708,90.7506 C142.7958,102.7816 145.3718,113.8026 151.3058,117.3956 C152.5068,118.3146 153.5268,118.4906 155.0128,118.1296 C169.9788,122.9456 182.2758,106.9236 187.9348,89.7526 C191.5948,88.8806 195.0538,86.7266 198.2798,83.8666 C196.8198,103.8976 203.4028,121.5836 223.5148,112.6986 C226.9818,110.1756 228.4858,106.6626 230.2768,103.6336 C232.7298,111.2626 240.1978,116.8826 244.1218,110.2956 C252.4118,96.8286 258.6868,85.0736 265.2548,72.9326 C271.6848,64.3276 274.5988,59.5406 276.6368,55.8746 C275.6678,66.6536 278.7828,74.7366 281.4498,81.8456 C228.1438,108.8286 275.7848,127.9876 290.5358,105.9896 C296.1018,97.7686 295.5378,90.1276 294.8118,81.9946 C297.6708,79.7676 301.4488,76.3386 305.5558,72.2586 C297.8248,107.4676 306.5138,110.8566 319.3998,106.2526 C323.9518,104.4986 331.5528,92.0956 338.1858,80.1566 C338.4038,105.3726 355.3588,111.1176 367.7728,81.4366 C369.3748,98.5006 373.8718,113.7806 401.3098,66.5016 C395.3938,92.1496 392.6388,117.2966 397.8098,126.5816 C415.2368,157.9196 444.2438,96.9566 438.8798,72.0346 C442.5928,67.7296 445.8738,62.7006 448.4408,58.2286 C441.0508,86.1076 436.8808,116.6456 443.6808,123.4496 C460.5268,146.9796 488.7878,86.5406 477.4418,68.8386 C514.8338,61.0746 570.3868,59.8686 592.9658,66.1756 C597.1488,67.3156 602.9678,55.7206 600.5778,51.8906 L600.5778,51.8906 Z" id="Fill-10"></path>
        </g>
    </g>
</svg>

<?xml version="1.0" encoding="utf-8"?>
<!-- Generator: Adobe Illustrator 17.1.0, SVG Export Plug-In . SVG Version: 6.00 Build 0)  -->
<!DOCTYPE svg PUBLIC "-//W3C//DTD SVG 1.1//EN" "http://www.w3.org/Graphics/SVG/1.1/DTD/svg11.dtd">
<svg version="1.1" id="Layer_1" xmlns="http://www.w3.org/2000/svg" xmlns:xlink="http://www.w3.org/1999/xlink" x="0px" y="0px"
	 viewBox="0 0 601.135 144.168" enable-background="new 0 0 601.135 144.168" xml:space="preserve">
<g>
	<path fill="#FFFFFF" d="M485.788,112.968c-2.73,0-4.762,2.159-4.762,4.762c0,2.667,2.032,4.762,4.762,4.762
		c2.667,0,4.762-2.095,4.762-4.762C490.55,115.128,488.455,112.968,485.788,112.968"/>
	<path fill="#FFFFFF" d="M528.028,75.375h-29.017c-0.845,0-1.529,0.684-1.529,1.529v44.636c0,0.845,0.684,1.529,1.529,1.529h7.81
		c0.845,0,1.529-0.684,1.529-1.529v-15.869h17.266c0.846,0,1.529-0.684,1.529-1.529v-6.984c0-0.845-0.683-1.529-1.529-1.529H508.35
		v-9.958h19.678c0.845,0,1.529-0.684,1.529-1.529v-7.238C529.557,76.059,528.873,75.375,528.028,75.375"/>
	<path fill="#FFFFFF" d="M583.095,76.669c-0.024-0.827-0.702-1.486-1.529-1.486h-3.493c-0.555,0-1.066,0.3-1.336,0.786
		l-16.775,30.138l-17.195-30.152c-0.273-0.478-0.779-0.772-1.329-0.772h-3.493c-0.827,0-1.505,0.659-1.529,1.486l-1.269,44.827
		c-0.01,0.414,0.145,0.812,0.433,1.11c0.288,0.295,0.682,0.463,1.096,0.463h7.683c0.842,0,1.524-0.68,1.529-1.522l0.095-19.254
		l11.064,20.359c0.267,0.493,0.784,0.799,1.344,0.799h2.729c0.566,0,1.087-0.314,1.352-0.814l10.942-20.675l0.147,19.589
		c0.006,0.84,0.688,1.518,1.529,1.518h7.745h0.03c0.845,0,1.529-0.684,1.529-1.53c0-0.119-0.013-0.235-0.039-0.347L583.095,76.669z"
		/>
	<path fill="#FFFFFF" d="M77.588,117.968c-2.028-8.333-2.289-18.852,0.19-32.274c1.858-5.463,3.2-9.325,4.059-12.129
		c0.781-0.182,1.381-0.338,1.711-0.454c5.734-2.064,7.853-16.853,1.944-15.65c-0.246,0.05-38.956,12.669-49.793,13.591
		c-2.487,0.378-1.806,4.981-2.408,9.592c-0.103,1.045,17.306-1.472,31.726-3.917c-0.621,3.019-1.027,6.131-1.386,8.854
		c-9.083,40.643-39.835,50.622-45.451,35.485C7.593,92.544,29.305,31.433,55.88,11.864c8.464,3.231,9.511,17.42,3.285,34.074
		c6.133,29.11,43.666-68.384-1.1-41.047C28.621-14.401,8.702,39.636,2.587,68.236c-13.64,64.241,29.566,99.354,61.48,47.645
		c3.031,34.094,26.523,35.446,30.746,14.313C85.699,133.821,79.868,127.954,77.588,117.968"/>
	<path fill="#FFFFFF" d="M600.578,51.891c-6.113-10.145-104.01,1.749-137.071,11.875c5.254-16.157,11.309-32.119,16.157-41.598
		c1.346-2.241,3.575-6.184,4.313-8.128c1.36-3.753-19.083-0.859-19.097,0.654c-4.183,6.48-8.98,18.296-13.146,31.829
		c-1.749,1.893-7.348,11.375-15.465,19.154c-3.07-4.056-8.442-5.172-16.606-1.421c5.987-19.588,13.226-39.268,19.034-51.032
		c1.221-2.231,4.475-7.636,5.302-10.089c1.449-4.265-20.355-1.019-20.369,0.495c-6.067,9.297-13.164,28.268-18.765,48.762
		c-4.89,6.656-17.302,23.672-24.602,31.021c0.63-10.25,6.613-23.036,10.649-34.921c5.539-8.596,5.693-11.63,4.589-12.935
		c-7.006-2.758-16.579-1.044-17.386,1.661c-4.394,12.163-8.136,22.895-9.651,33.084c-5.952,8.122-12.51,16.541-15.665,18.16
		c-2.123-8.283,6.36-31.581,9.509-40.128c4.493-7.385,5.024-10.448,3.707-11.231c-5.8-3.477-17.061-0.756-17.503,1.795
		c-4.7,10.279-7.594,19.666-9.082,27.867c-11.076,15.969-23.957,36.37-24.717,28.877c0.815-11.145,5.855-29.908,13.916-50.403
		c3.425-4.788,6.717-9.692,9.748-14.701c24.035-2.027,51.378-5.303,52.484-7.4c0.862-1.953,7.988-12.933,5.233-12.73
		c-0.377,0.028-27.206,5.156-51.97,9.25c2.298-4.703,3.97-9.362,5.276-13.867c2.679-9.771-19.585-4.223-22.424-1.745
		c-0.127,0.009-0.127,0.009-0.117,0.134c-0.116,0.134-0.241,0.144-0.232,0.269c-2.401,6.726-4.712,12.943-6.669,18.881
		c-4.858,0.738-8.983,1.168-11.739,1.371c-4.634,0.342-3.857,4.062-5.342,7.825c-0.099,0.385,5.558,0.221,14.087-0.283
		c-3.191,9.682-5.723,18.056-7.817,25.517c-5.032,6.921-10.505,12.993-15.836,17.543c-1.737-8.185-2.533-15.558,4.194-31.926
		c2.35-5.715-3.365-8.065-17.645-1.847c-0.356,0.279-0.937,0.951-1.499,1.874c-2.31,3.634-6.907,11.863-11.52,19.323
		c-0.216,0.098-0.428,0.239-0.625,0.468c-0.45,0.464-2.758,4.252-5.921,9.327c-0.292,0.387-0.585,0.775-0.864,1.124
		c0,0,0.015,0.078,0.04,0.197c-4.135,6.612-9.48,14.976-14.088,21.119c-1.266,1.604-3.755,5.441-4.523-1.556
		c-2.004-18.62,22.015-73.8,29.061-84.143c3.978-5.837-20.484-2.773-21.06-0.336c-5.865,14.414-10.109,28.582-13.571,41.434
		c-15.889-22.538-30.965-0.567-35.685,23.689c-3.371,2.881-6.848,4.911-10.065,5.004c4.552-28.802-18.277-46.264-26.893-29.884
		c-2.414,4.839-3.386,10.452-3.114,15.849c-1.944-0.738-4.323-0.562-7.363,0.921c-0.618,0.171-1.224,0.469-1.671,1.257
		c-2.549,4.723-4.559,9.91-5.675,15.282c-3.266,0.115-7.089-0.484-11.218-1.818c0.88-6.866,0.533-13.265-1.215-18.174
		c-5.216-14.352-21.003-21.753-27.122-9.084c-6.573,13.333,8.135,26.607,11.243,27.765c0.126-0.01,0.126-0.01,0.26,0.106
		c-0.463,15.906-9.732,40.521-15.459,32.882c-5.39-8.167-1.851-21.654,3.851-33.159c0.345-5.568-9.377-14.423-12.042-9.567
		c-9.777,17.726-9.088,44.127,0.806,50.199c1.202,0.919,2.222,1.095,3.706,0.734c16.035,5.619,29.343-13.752,34.327-33.266
		c4.12,1.207,7.943,1.807,11.71,1.654c-0.875,12.031,1.701,23.052,7.635,26.645c1.201,0.919,2.221,1.095,3.707,0.734
		c14.966,4.816,27.263-11.206,32.922-28.377c3.66-0.872,7.119-3.026,10.345-5.886c-1.46,20.031,5.123,37.717,25.235,28.832
		c3.467-2.523,4.971-6.036,6.762-9.065c2.453,7.629,9.921,13.249,13.845,6.662c8.29-13.467,14.565-25.222,21.133-37.363
		c6.43-8.605,9.344-13.392,11.382-17.058c-0.969,10.779,2.146,18.862,4.813,25.971c-53.306,26.983-5.665,46.142,9.086,24.144
		c5.566-8.221,5.002-15.862,4.276-23.995c2.859-2.227,6.637-5.656,10.744-9.736c-7.731,35.209,0.958,38.598,13.844,33.994
		c4.552-1.754,12.153-14.157,18.786-26.096c0.218,25.216,17.173,30.961,29.587,1.28c1.602,17.064,6.099,32.344,33.537-14.935
		c-5.916,25.648-8.671,50.795-3.5,60.08c17.427,31.338,46.434-29.625,41.07-54.547c3.713-4.305,6.994-9.334,9.561-13.806
		c-7.39,27.879-11.56,58.417-4.76,65.221c16.846,23.53,45.107-36.909,33.761-54.611c37.392-7.764,92.945-8.97,115.524-2.663
		C597.149,67.316,602.968,55.721,600.578,51.891 M117.991,70.477c-5.009-3.031-6.892-8.056-3.133-8.333
		C117.112,61.977,118.667,64.255,117.991,70.477 M158.69,109.923c-3.826-5.764-3.193-14.249-0.43-22.892
		c2.521-1.698,4.312-4.728,5.19-8.193c2.157,3.62,5.242,6.163,8.966,7.149c0.01,0.125,0.136,0.115,0.136,0.115
		C171.962,102.016,162.488,115.311,158.69,109.923 M173.672,75.69c-4.902-3.29-5.195-17.502-1.437-17.78
		C174.491,57.744,174.346,69.468,173.672,75.69 M229.754,70.923l-5.866,21.216c-18.994,41.331-8.819-54.645,10.027-36.512
		L229.754,70.923z M284.037,101.557c-3.686,8.082-12.445,5.453-10.81-3.108c1.009-5.112,4.925-6.661,10.628-9.6
		C285.037,92.919,285.987,97.256,284.037,101.557 M408.497,122.897c-2.677-3.834,0.771-21.975,6.521-43.056
		c2.134,1.605,5.36,2.628,9.609,2.187C425.371,97.216,415.645,129.297,408.497,122.897 M453.324,117.574l-0.009-0.125
		c-3.541-1.88,0.051-19.78,6.099-40.254C473.326,67.729,461.827,121.859,453.324,117.574"/>
</g>
</svg>
